docs/images/icons/Pay.svg

<svg width="33" height="14" viewBox="0 0 33 14" fill="none" xmlns="http://www.w3.org/2000/svg">
<path id="Pay" d="M6.89525 1.95468C7.27225 1.48268 7.52725 0.848684 7.46025 0.200684C6.90825 0.228684 6.23525 0.565684 5.84625 1.03768C5.49625 1.44268 5.18625 2.10268 5.26625 2.72368C5.88625 2.77768 6.50525 2.41368 6.89525 1.95368V1.95468ZM7.45325 2.84468C6.55325 2.79068 5.78925 3.35568 5.36025 3.35568C4.93025 3.35568 4.27325 2.87168 3.56225 2.88468C2.63625 2.89868 1.77725 3.42268 1.30825 4.25668C0.342252 5.92468 1.05325 8.39868 1.99225 9.75768C2.44825 10.4297 2.99825 11.1697 3.72225 11.1437C4.40725 11.1167 4.67625 10.6997 5.50825 10.6997C6.33925 10.6997 6.58125 11.1437 7.30525 11.1297C8.05725 11.1167 8.52625 10.4577 8.98325 9.78468C9.50625 9.01868 9.72025 8.27868 9.73325 8.23768C9.72025 8.22468 8.28525 7.67268 8.27225 6.01768C8.25825 4.63368 9.39925 3.97468 9.45225 3.93368C8.80825 2.97968 7.80225 2.87168 7.45225 2.84368L7.45325 2.84468ZM15.2813 0.970684C17.2353 0.970684 18.5963 2.31968 18.5963 4.28468C18.5963 6.25568 17.2073 7.61268 15.2323 7.61268H13.0693V11.0597H11.5053V0.970684H15.2813ZM13.0693 6.29768H14.8623C16.2233 6.29768 16.9983 5.56368 16.9983 4.29168C16.9983 3.01868 16.2233 2.29168 14.8693 2.29168H13.0693V6.29768ZM19.0043 8.96868C19.0043 7.68268 19.9893 6.89268 21.7343 6.79468L23.7443 6.67568V6.10968C23.7443 5.29068 23.1923 4.80168 22.2713 4.80168C21.3983 4.80168 20.8543 5.22168 20.7213 5.87868H19.2983C19.3813 4.54968 20.5123 3.57068 22.3273 3.57068C24.1073 3.57068 25.2443 4.51468 25.2443 5.99068V11.0607H23.7993V9.85068H23.7643C23.3393 10.6687 22.4103 11.1857 21.4473 11.1857C20.0093 11.1857 19.0043 10.2907 19.0043 8.96868ZM23.7443 8.30468V7.72468L21.9363 7.83668C21.0363 7.89968 20.5263 8.29768 20.5263 8.92668C20.5263 9.57068 21.0563 9.98968 21.8663 9.98968C22.9203 9.98968 23.7433 9.26268 23.7433 8.30468H23.7443ZM26.6073 13.7657V12.5417C26.7193 12.5697 26.9703 12.5697 27.0973 12.5697C27.7943 12.5697 28.1713 12.2767 28.4013 11.5217C28.4013 11.5077 28.5343 11.0737 28.5343 11.0667L25.8823 3.70368H27.5153L29.3713 9.68968H29.3993L31.2563 3.70368H32.8473L30.0973 11.4437C29.4693 13.2277 28.7433 13.8007 27.2223 13.8007C27.0171 13.7999 26.8122 13.7882 26.6083 13.7657H26.6073Z" fill="#B2B2B2"/>
</svg>

<svg width="33" height="14" fill="none" xmlns="http://www.w3.org/2000/svg"><path d="M6.895 1.955C7.272 1.483 7.527.849 7.46.2c-.552.028-1.225.365-1.614.837-.35.405-.66 1.065-.58 1.686.62.054 1.24-.31 1.63-.77Zm.558.89c-.9-.054-1.664.51-2.093.51-.43 0-1.087-.483-1.798-.47-.926.014-1.785.538-2.254 1.372-.966 1.668-.255 4.142.684 5.5.456.673 1.006 1.413 1.73 1.387.685-.027.954-.444 1.786-.444.831 0 1.073.444 1.797.43.752-.013 1.221-.672 1.678-1.345.523-.766.737-1.506.75-1.547-.013-.013-1.448-.565-1.46-2.22-.015-1.384 1.126-2.043 1.18-2.084-.645-.954-1.65-1.062-2-1.09ZM15.281.97c1.954 0 3.315 1.349 3.315 3.314 0 1.97-1.389 3.328-3.364 3.328H13.07v3.447h-1.564V.97h3.776ZM13.07 6.298h1.793c1.361 0 2.136-.734 2.136-2.006 0-1.273-.775-2-2.129-2h-1.8v4.006Zm5.935 2.67c0-1.285.985-2.075 2.73-2.173l2.01-.12V6.11c0-.82-.552-1.308-1.473-1.308-.873 0-1.417.42-1.55 1.077h-1.423c.083-1.33 1.214-2.308 3.03-2.308 1.78 0 2.916.944 2.916 2.42v5.07H23.8V9.85h-.035c-.425.818-1.354 1.335-2.317 1.335-1.438 0-2.443-.895-2.443-2.217Zm4.74-.663v-.58l-1.808.112c-.9.063-1.41.46-1.41 1.09 0 .644.53 1.063 1.34 1.063 1.054 0 1.877-.727 1.877-1.685h.001Zm2.863 5.46v-1.223c.112.028.363.028.49.028.697 0 1.074-.293 1.304-1.048 0-.014.133-.448.133-.455l-2.652-7.363h1.633l1.856 5.986h.028l1.857-5.986h1.591l-2.75 7.74c-.628 1.784-1.354 2.357-2.875 2.357a6 6 0 0 1-.614-.035Z" fill="#B2B2B2"/></svg>
